X: 2
T: Na Ceannabhain Bhana
M: 9/8
L: 1/8
R: slip jig
K: Gmaj
B2 G AGE GED |EGD DEG A2 c|BGG AGE GED| EGD DEF G2 A :||
Bdd edd BGG |Bdd edB A2 c|Bdd edd B2A |GED DEF G3 :||
